Newaita-dark/.DP/32/telegram-panel.svg

<svg xmlns="http://www.w3.org/2000/svg" xmlns:xlink="http://www.w3.org/1999/xlink" width="32px" height="32px" viewBox="0 0 32 32" version="1.1">
<g id="surface1">
<path style=" stroke:none;fill-rule:nonzero;fill:rgb(93.333334%,93.333334%,93.333334%);fill-opacity:1;" d="M 26.898438 5.03125 C 26.519531 4.679688 25.96875 4.574219 25.488281 4.765625 L 4.90625 12.902344 C 3.714844 13.375 3.789062 15.082031 5.011719 15.449219 L 13.894531 18.113281 L 16.554688 26.988281 C 16.921875 28.214844 18.628906 28.285156 19.097656 27.097656 L 27.238281 6.515625 C 27.441406 5.996094 27.308594 5.410156 26.898438 5.03125 Z M 26.898438 5.03125 "/>
</g>
</svg>

<svg xmlns="http://www.w3.org/2000/svg" width="32pt" height="32pt" viewBox="0 0 32 32"><path d="M26.898 5.031a1.354 1.354 0 0 0-1.41-.265L4.906 12.902c-1.187.473-1.117 2.176.11 2.547l8.875 2.66 2.664 8.88c.367 1.226 2.074 1.296 2.543.109l8.136-20.582a1.347 1.347 0 0 0-.336-1.485zm0 0" fill="#bdbdbd"/></svg>
